X:68
T:Pellikvalsen
R:Vals
Z:Transcribed to abcby Jon Magnusson 080828
O:Lejsme Per, Dalarna
M:3/4
L:1/8
K:A
E2ccc2|Ac ea af|fd dd dd|d2 fafd|dc cc c2|Ac ea fd|B2 df ec|cA ce dB|EG Bd BG|A4 E2:|
|:E2cB Ac|cB dc BA|GA BE GB|A2 fe cA|E2 cB Ac|cB dc BA|GA BE GB|[1 A4 E2:|[2 A3 Bcd|]
|:e2 ae ce|d2 fe dB|EG Bd BG|AG AB cd|e2 ae ce|d2 fe dB|EG Bd BG|[1 A3 Bcd:|[2 A6|]
